veiligh_ruimtelijk_type/154.svg

<?xml version="1.0" encoding="utf-8"?>
<!-- Generator: Adobe Illustrator 24.1.0, SVG Export Plug-In . SVG Version: 6.00 Build 0)  -->
<svg version="1.1"
	 id="svg2" xmlns:cc="http://creativecommons.org/ns#" xmlns:dc="http://purl.org/dc/elements/1.1/" xmlns:inkscape="http://www.inkscape.org/namespaces/inkscape" xmlns:rdf="http://www.w3.org/1999/02/22-rdf-syntax-ns#" xmlns:sodipodi="http://sodipodi.sourceforge.net/DTD/sodipodi-0.dtd" xmlns:svg="http://www.w3.org/2000/svg"
	 xmlns="http://www.w3.org/2000/svg" xmlns:xlink="http://www.w3.org/1999/xlink" x="0px" y="0px" viewBox="0 0 71 71"
	 style="enable-background:new 0 0 71 71;" xml:space="preserve">
<style type="text/css">
	.st0{fill:#E30613;stroke:#FFFFFF;stroke-width:2;}
	.st1{fill:#FFFFFF;}
</style>
<polygon id="rect2995" class="st0" points="0.4,0.4 70.4,0.4 70.4,0.4 70.4,70.4 70.4,70.4 0.4,70.4 0.4,70.4 0.4,0.4 "/>
<path class="st1" d="M25.4,15l-7.3,2c-0.6,0.2-1.2,0.5-1.7,0.9l-6.1,4.9c0,0-1.1,2,2.6,1.2c1.2,2.4,2.5,4.8,2.5,4.8L27.3,25
	l28.4-12.9l-0.8-2.4l-29.4,8.6l-0.5-0.9C24.9,17.3,27.7,15.6,25.4,15z"/>
<rect x="14.7" y="23.3" class="st1" width="12.7" height="37.7"/>
<rect x="11.3" y="60.2" class="st1" width="19.5" height="3.8"/>
<path class="st1" d="M28.2,33.7H13.7c-0.7,0-1.2-0.5-1.2-1.2v-0.3c0-0.7,0.5-1.2,1.2-1.2h14.5c0.7,0,1.2,0.5,1.2,1.2v0.3
	C29.4,33.2,28.8,33.7,28.2,33.7z"/>
<rect x="54.6" y="6.8" transform="matrix(0.9467 -0.322 0.322 0.9467 -9.877685e-02 19.1061)" class="st1" width="6.1" height="6.1"/>
<path class="st1" d="M20.9,10.8L9.7,17.2c-0.5,0.3-1.2,0.1-1.5-0.4l-0.1-0.2c-0.3-0.5-0.1-1.2,0.4-1.5l11.2-6.5
	c0.5-0.3,1.2-0.1,1.5,0.4l0.1,0.2C21.6,9.8,21.4,10.5,20.9,10.8z"/>
<rect x="15.1" y="12.9" transform="matrix(0.866 -0.5 0.5 0.866 -5.9293 10.5129)" class="st1" width="3.2" height="6.8"/>
<path class="st1" d="M62.4,57.4c0,0-9.8,2.2-14.6-2.9c1.4,4.4,4.5,10.4,14.6,9.5C62.2,57.9,62.4,57.4,62.4,57.4z"/>
<path class="st1" d="M62.3,50.5c0,0-14.8-1.7-15.4-16.3c8.1,10.4,15.4,9.9,15.4,9.9V50.5z"/>
<path class="st1" d="M61.1,53.6c0,0-6.1-1.1-8.3-4.4c-1.6-2.4-6-5.1-10.4-2.6c4.9,1.8,5.3,2.7,7.1,5S56.2,57.3,61.1,53.6z"/>
<path class="st1" d="M56.6,21.2c0,0-0.5,6.5,5.7,9.3l0,7.2C62.4,37.6,52.9,32.5,56.6,21.2z"/>
<path class="st1" d="M61.1,40.2c0,0-4.8-2.6-6.5-7.7c-1.8-5.1-4.8-8.6-8.4-8.5c3.6,4.4,3.5,6.6,4.4,9.2
	C51.4,35.9,55.4,41.4,61.1,40.2z"/>
</svg>

<?xml version="1.0" encoding="UTF-8" standalone="no"?>
<!-- Generator: Adobe Illustrator 24.1.0, SVG Export Plug-In . SVG Version: 6.00 Build 0)  -->

<svg
   xmlns:dc="http://purl.org/dc/elements/1.1/"
   xmlns:cc="http://creativecommons.org/ns#"
   xmlns:rdf="http://www.w3.org/1999/02/22-rdf-syntax-ns#"
   xmlns:svg="http://www.w3.org/2000/svg"
   xmlns="http://www.w3.org/2000/svg"
   xmlns:sodipodi="http://sodipodi.sourceforge.net/DTD/sodipodi-0.dtd"
   xmlns:inkscape="http://www.inkscape.org/namespaces/inkscape"
   version="1.1"
   id="svg2"
   x="0px"
   y="0px"
   viewBox="0 0 125 125"
   xml:space="preserve"
   sodipodi:docname="154.svg"
   width="125"
   height="125"
   inkscape:version="0.92.5 (2060ec1f9f, 2020-04-08)"><metadata
   id="metadata42834"><rdf:RDF><cc:Work
       rdf:about=""><dc:format>image/svg+xml</dc:format><dc:type
         rdf:resource="http://purl.org/dc/dcmitype/StillImage" /><dc:title></dc:title></cc:Work></rdf:RDF></metadata><defs
   id="defs42832" /><sodipodi:namedview
   pagecolor="#ffffff"
   bordercolor="#666666"
   borderopacity="1"
   objecttolerance="10"
   gridtolerance="10"
   guidetolerance="10"
   inkscape:pageopacity="0"
   inkscape:pageshadow="2"
   inkscape:window-width="1920"
   inkscape:window-height="1017"
   id="namedview42830"
   showgrid="false"
   inkscape:zoom="3.3239437"
   inkscape:cx="35.5"
   inkscape:cy="35.5"
   inkscape:window-x="-8"
   inkscape:window-y="-8"
   inkscape:window-maximized="1"
   inkscape:current-layer="svg2" />
<style
   type="text/css"
   id="style42802">
	.st0{fill:#E30613;stroke:#FFFFFF;stroke-width:2;}
	.st1{fill:#FFFFFF;}
</style>












<g
   id="g43392"
   transform="matrix(0.90277778,0,0,0.90277778,30.541667,30.541667)"><polygon
     points="0.4,0.4 70.4,0.4 70.4,70.4 0.4,70.4 "
     class="st0"
     id="rect2995"
     style="fill:#e30613;stroke:#ffffff;stroke-width:2" /><path
     id="path42805"
     d="m 25.4,15 -7.3,2 c -0.6,0.2 -1.2,0.5 -1.7,0.9 l -6.1,4.9 c 0,0 -1.1,2 2.6,1.2 1.2,2.4 2.5,4.8 2.5,4.8 L 27.3,25 55.7,12.1 54.9,9.7 25.5,18.3 25,17.4 c -0.1,-0.1 2.7,-1.8 0.4,-2.4 z"
     class="st1"
     inkscape:connector-curvature="0"
     style="fill:#ffffff" /><rect
     id="rect42807"
     height="37.700001"
     width="12.7"
     class="st1"
     y="23.299999"
     x="14.7"
     style="fill:#ffffff" /><rect
     id="rect42809"
     height="3.8"
     width="19.5"
     class="st1"
     y="60.200001"
     x="11.3"
     style="fill:#ffffff" /><path
     id="path42811"
     d="M 28.2,33.7 H 13.7 c -0.7,0 -1.2,-0.5 -1.2,-1.2 V 32.2 C 12.5,31.5 13,31 13.7,31 h 14.5 c 0.7,0 1.2,0.5 1.2,1.2 v 0.3 c 0,0.7 -0.6,1.2 -1.2,1.2 z"
     class="st1"
     inkscape:connector-curvature="0"
     style="fill:#ffffff" /><rect
     id="rect42813"
     height="6.0999999"
     width="6.0999999"
     class="st1"
     transform="matrix(0.9467,-0.322,0.322,0.9467,-0.09877685,19.1061)"
     y="6.8000002"
     x="54.599998"
     style="fill:#ffffff" /><path
     id="path42815"
     d="M 20.9,10.8 9.7,17.2 C 9.2,17.5 8.5,17.3 8.2,16.8 L 8.1,16.6 C 7.8,16.1 8,15.4 8.5,15.1 L 19.7,8.6 C 20.2,8.3 20.9,8.5 21.2,9 l 0.1,0.2 c 0.3,0.6 0.1,1.3 -0.4,1.6 z"
     class="st1"
     inkscape:connector-curvature="0"
     style="fill:#ffffff" /><rect
     id="rect42817"
     height="6.8000002"
     width="3.2"
     class="st1"
     transform="matrix(0.866,-0.5,0.5,0.866,-5.9293,10.5129)"
     y="12.9"
     x="15.1"
     style="fill:#ffffff" /><path
     id="path42819"
     d="m 62.4,57.4 c 0,0 -9.8,2.2 -14.6,-2.9 1.4,4.4 4.5,10.4 14.6,9.5 -0.2,-6.1 0,-6.6 0,-6.6 z"
     class="st1"
     inkscape:connector-curvature="0"
     style="fill:#ffffff" /><path
     id="path42821"
     d="m 62.3,50.5 c 0,0 -14.8,-1.7 -15.4,-16.3 8.1,10.4 15.4,9.9 15.4,9.9 z"
     class="st1"
     inkscape:connector-curvature="0"
     style="fill:#ffffff" /><path
     id="path42823"
     d="m 61.1,53.6 c 0,0 -6.1,-1.1 -8.3,-4.4 -1.6,-2.4 -6,-5.1 -10.4,-2.6 4.9,1.8 5.3,2.7 7.1,5 1.8,2.3 6.7,5.7 11.6,2 z"
     class="st1"
     inkscape:connector-curvature="0"
     style="fill:#ffffff" /><path
     id="path42825"
     d="m 56.6,21.2 c 0,0 -0.5,6.5 5.7,9.3 v 7.2 c 0.1,-0.1 -9.4,-5.2 -5.7,-16.5 z"
     class="st1"
     inkscape:connector-curvature="0"
     style="fill:#ffffff" /><path
     id="path42827"
     d="m 61.1,40.2 c 0,0 -4.8,-2.6 -6.5,-7.7 -1.8,-5.1 -4.8,-8.6 -8.4,-8.5 3.6,4.4 3.5,6.6 4.4,9.2 0.8,2.7 4.8,8.2 10.5,7 z"
     class="st1"
     inkscape:connector-curvature="0"
     style="fill:#ffffff" /></g>
</svg>
